_estrategia/anuncios/_fuente/color/averarq.cube
TITLE "AVERARQ"
# Linea visual AVERARQ - generada por crear_lut.py
LUT_3D_SIZE 5
0.007906 0.029761 0.049703
0.214019 0.031331 0.049328
0.481772 0.032902 0.048313
0.749592 0.034595 0.047333
0.955850 0.036435 0.047039
0.052534 0.233198 0.058228
0.219162 0.215453 0.050969
0.487496 0.232988 0.037195
0.755417 0.232998 0.034394
0.961735 0.233080 0.032255
0.102372 0.498657 0.065301
0.385554 0.498905 0.098344
0.494370 0.454584 0.050247
0.763750 0.495610 0.029874
0.970343 0.499740 0.023087
0.155850 0.765481 0.073196
0.510137 0.766353 0.126040
0.684079 0.766800 0.092900
0.771174 0.711366 0.049627
0.979238 0.753984 0.030658
0.210740 0.971891 0.083921
0.584963 0.973256 0.135412
0.834365 0.974276 0.156323
0.930687 0.974592 0.093161
0.985378 0.918343 0.051892
0.016037 0.044580 0.252754
0.214568 0.031224 0.251078
0.482339 0.032823 0.250744
0.750179 0.034545 0.250444
0.956452 0.036407 0.250827
0.019434 0.233176 0.238839
0.220237 0.233051 0.243729
0.486584 0.186143 0.195879
0.754035 0.172684 0.180168
0.960143 0.167297 0.172814
0.027317 0.498646 0.236648
0.245973 0.498807 0.218178
0.495439 0.472372 0.204025
0.762381 0.442422 0.143922
0.966980 0.390055 0.105857
0.048044 0.765362 0.217002
0.296241 0.765899 0.217749
0.668342 0.766933 0.273770
0.772183 0.725547 0.192391
0.979095 0.737837 0.151297
0.070087 0.971576 0.200143
0.352966 0.972526 0.226018
0.768813 0.974219 0.308686
0.915427 0.974770 0.259626
0.986307 0.928955 0.190329
0.024462 0.059834 0.516668
0.218000 0.033036 0.515546
0.483081 0.032731 0.512699
0.750944 0.034490 0.513073
0.957236 0.036382 0.514113
0.071204 0.348522 0.505811
0.184606 0.209810 0.509530
0.487513 0.186117 0.507174
0.754908 0.172691 0.466180
0.960995 0.167330 0.446879
0.033621 0.498706 0.483315
0.189489 0.498841 0.488682
0.497270 0.499215 0.496240
0.762533 0.419514 0.416882
0.967657 0.383057 0.379619
0.037420 0.765533 0.495185
0.179668 0.765810 0.448891
0.514319 0.766664 0.451359
0.773717 0.744440 0.431959
0.978357 0.699305 0.329715
0.049488 0.971812 0.485604
0.198273 0.972212 0.410307
0.557302 0.973547 0.440045
0.905948 0.975115 0.517798
0.987643 0.942285 0.405926
0.033022 0.075565 0.780573
0.221449 0.034872 0.780016
0.487227 0.034607 0.777172
0.751712 0.034449 0.774366
0.958020 0.036369 0.774741
0.083989 0.391710 0.768779
0.180074 0.215149 0.773984
0.448762 0.172691 0.772658
0.755843 0.172716 0.769451
0.961929 0.167382 0.744537
0.080946 0.622865 0.760888
0.259265 0.614991 0.759370
0.432697 0.451843 0.763140
0.763680 0.419690 0.760895
0.968768 0.383238 0.710801
0.048767 0.765734 0.735033
0.190991 0.766071 0.738825
0.437780 0.766728 0.743549
0.775714 0.767778 0.749315
0.979307 0.690980 0.673551
0.047578 0.972097 0.752320
0.179813 0.972514 0.725455
0.401049 0.973279 0.694528
0.784161 0.974860 0.706862
0.989352 0.958150 0.689523
0.041545 0.091796 0.983593
0.223821 0.037563 0.983595
0.491198 0.036519 0.980770
0.755021 0.036393 0.977980
0.958629 0.036368 0.975843
0.090553 0.415908 0.971606
0.182934 0.227730 0.977226
0.431650 0.167273 0.976750
0.733049 0.167311 0.973606
0.962646 0.167432 0.971234
0.143802 0.748783 0.959826
0.263325 0.642262 0.962178
0.407857 0.440906 0.967511
0.713235 0.382977 0.966396
0.969625 0.383389 0.963813
0.093059 0.864165 0.956541
0.254293 0.853589 0.955330
0.515561 0.852620 0.952863
0.713173 0.720798 0.955213
0.980343 0.691297 0.953605
0.062374 0.972351 0.932030
0.198438 0.972831 0.934451
0.416849 0.973658 0.937181
0.717331 0.974915 0.940212
0.991052 0.976181 0.944545
