_estrategia/anuncios/_fuente/color/averarq.cube
TITLE "AVERARQ"
# Linea visual AVERARQ - generada por crear_lut.py
LUT_3D_SIZE 9
0.007906 0.029761 0.049703
0.103260 0.030550 0.049596
0.214019 0.031331 0.049328
0.340188 0.032112 0.048899
0.481772 0.032902 0.048313
0.623374 0.033726 0.047737
0.749592 0.034595 0.047333
0.860419 0.035501 0.047101
0.955850 0.036435 0.047039
0.029598 0.123776 0.054158
0.105577 0.115990 0.050599
0.216535 0.123541 0.043996
0.342710 0.123410 0.042645
0.484303 0.123292 0.041135
0.625914 0.123204 0.039632
0.752135 0.123151 0.038299
0.862960 0.123125 0.037133
0.958385 0.123117 0.036133
0.052534 0.233198 0.058228
0.175305 0.233106 0.074086
0.219162 0.215453 0.050969
0.345820 0.231540 0.041026
0.487496 0.232988 0.037195
0.629154 0.232980 0.035711
0.755417 0.232998 0.034394
0.866279 0.233034 0.033243
0.961735 0.233080 0.032255
0.076772 0.358123 0.061934
0.225502 0.358120 0.086730
0.302610 0.358132 0.071357
0.348733 0.328271 0.050841
0.491075 0.350629 0.040970
0.632982 0.357845 0.031319
0.759305 0.358374 0.030007
0.870209 0.358481 0.028872
0.965702 0.358588 0.027899
0.102372 0.498657 0.065301
0.257769 0.498779 0.089157
0.385554 0.498905 0.098344
0.450639 0.498967 0.069280
0.494370 0.454584 0.050247
0.636967 0.481667 0.039502
0.763750 0.495610 0.029874
0.874810 0.499565 0.024045
0.970343 0.499740 0.023087
0.128905 0.639570 0.068882
0.290015 0.639825 0.092317
0.469212 0.640163 0.123267
0.536931 0.640277 0.094728
0.608904 0.640406 0.067762
0.640539 0.588600 0.049578
0.767819 0.615724 0.038505
0.879366 0.632760 0.030726
0.975090 0.638498 0.018447
0.155850 0.765481 0.073196
0.322274 0.765863 0.096458
0.510137 0.766353 0.126040
0.626143 0.766667 0.124902
0.684079 0.766800 0.092900
0.751634 0.766972 0.067323
0.771174 0.711366 0.049627
0.883049 0.736671 0.038400
0.979238 0.753984 0.030658
0.183147 0.876285 0.078216
0.354683 0.876788 0.101446
0.548661 0.877417 0.130180
0.713044 0.878005 0.159144
0.760273 0.878128 0.122602
0.815698 0.878291 0.092461
0.876804 0.878484 0.067839
0.886146 0.821324 0.050409
0.982571 0.844380 0.039103
0.210740 0.971891 0.083921
0.387274 0.972505 0.107203
0.584963 0.973256 0.135412
0.757960 0.973980 0.169748
0.834365 0.974276 0.156323
0.880070 0.974419 0.121961
0.930687 0.974592 0.093161
0.984092 0.974788 0.069229
0.985378 0.918343 0.051892
0.011935 0.037117 0.143621
0.103510 0.030494 0.142862
0.214273 0.031281 0.142763
0.340446 0.032068 0.142504
0.482034 0.032865 0.142088
0.623642 0.033695 0.141682
0.749863 0.034571 0.141448
0.860694 0.035482 0.141385
0.956129 0.036421 0.141492
0.013370 0.123759 0.137366
0.106036 0.123635 0.139426
0.216172 0.102967 0.118437
0.342157 0.096849 0.111322
0.483666 0.094291 0.107472
0.625235 0.093170 0.104987
0.751437 0.092788 0.103348
0.862257 0.092834 0.102262
0.957686 0.093153 0.101584
0.016403 0.233206 0.136530
0.116763 0.233132 0.128379
0.219573 0.222500 0.122161
0.345360 0.210368 0.095075
0.486317 0.189064 0.076908
0.627904 0.186855 0.079041
0.754144 0.186366 0.080383
0.865006 0.186634 0.081398
0.960476 0.187294 0.082290
0.026003 0.358128 0.127454
0.138132 0.358117 0.127681
0.294840 0.358136 0.151735
0.349156 0.335581 0.116601
0.490980 0.341827 0.097660
0.632083 0.324517 0.076277
0.757601 0.301598 0.055994
0.868100 0.289945 0.049211
0.963562 0.289260 0.052272
0.037531 0.498629 0.118093
0.163165 0.498713 0.129276
0.347199 0.498889 0.164232
0.439264 0.498983 0.143183
0.494824 0.462375 0.113565
0.637023 0.477553 0.097340
0.763215 0.474384 0.079281
0.873472 0.455523 0.061308
0.968209 0.433716 0.043450
0.049822 0.639483 0.109240
0.190045 0.639689 0.132129
0.378071 0.640019 0.164523
0.528512 0.640316 0.176836
0.597723 0.640433 0.138339
0.640996 0.595922 0.111674
0.767965 0.614188 0.095814
0.879120 0.620433 0.082333
0.974337 0.612248 0.064593
0.062145 0.765313 0.101291
0.217789 0.765658 0.136232
0.409457 0.766131 0.167154
0.610671 0.766702 0.207022
0.674556 0.766849 0.170862
0.742018 0.767012 0.135971
0.771621 0.717857 0.111103
0.883253 0.736622 0.095580
0.979186 0.747051 0.084994
0.074351 0.876018 0.094125
0.246142 0.876516 0.141338
0.441529 0.877122 0.171352
0.644909 0.877828 0.208927
0.753536 0.878208 0.207883
0.806702 0.878351 0.167828
0.868784 0.878540 0.135313
0.886581 0.827034 0.111597
0.982814 0.845160 0.096367
0.086344 0.971509 0.087663
0.274949 0.972170 0.147312
0.474201 0.972898 0.176750
0.676950 0.973714 0.212814
0.830343 0.974391 0.248779
0.872873 0.974506 0.204125
0.922825 0.974666 0.166820
0.977591 0.974858 0.135977
0.985798 0.923302 0.113000
0.016037 0.044580 0.252754
0.104983 0.031397 0.252267
0.214568 0.031224 0.251078
0.340746 0.032018 0.250990
0.482339 0.032823 0.250744
0.623952 0.033662 0.250507
0.750179 0.034545 0.250444
0.861014 0.035462 0.250551
0.956452 0.036407 0.250827
0.038187 0.172526 0.247845
0.090389 0.113479 0.249424
0.216536 0.102915 0.248446
0.342498 0.096807 0.231890
0.483999 0.094258 0.223494
0.625566 0.093147 0.218378
0.751767 0.092772 0.215052
0.862587 0.092825 0.212817
0.958017 0.093149 0.211321
0.019434 0.233176 0.238839
0.092027 0.233123 0.240841
0.220237 0.233051 0.243729
0.345433 0.201093 0.211702
0.486584 0.186143 0.195879
0.627957 0.177788 0.186388
0.754035 0.172684 0.180168
0.864773 0.169419 0.175866
0.960143 0.167297 0.172814
0.020631 0.358122 0.242707
0.087399 0.358117 0.224107
0.227129 0.358127 0.224958
0.349769 0.345524 0.217050
0.490601 0.321717 0.174820
0.631157 0.287542 0.146208
0.757229 0.280496 0.146746
0.867989 0.276559 0.146791
0.963388 0.274219 0.146781
0.027317 0.498646 0.236648
0.096762 0.498684 0.206340
0.245973 0.498807 0.218178
0.432160 0.499017 0.248907
0.495439 0.472372 0.204025
0.637069 0.471153 0.174848
0.762381 0.442422 0.143922
0.872100 0.408242 0.115554
0.966980 0.390055 0.105857
0.037284 0.639518 0.226658
0.108716 0.639600 0.192462
0.269884 0.639861 0.216416
0.486819 0.640289 0.260538
0.587281 0.640481 0.234421
0.641588 0.604846 0.196491
0.768185 0.612871 0.172601
0.878747 0.603090 0.147210
0.973349 0.577891 0.122626
0.048044 0.765362 0.217002
0.121259 0.765485 0.181247
0.296241 0.765899 0.217749
0.515847 0.766488 0.258278
0.668342 0.766933 0.273770
0.732222 0.767075 0.226379
0.772183 0.725547 0.192391
0.883537 0.737043 0.170008
0.979095 0.737837 0.151297
0.059062 0.876077 0.208152
0.133927 0.876239 0.171772
0.324099 0.876817 0.221126
0.545223 0.877550 0.259432
0.740815 0.878285 0.308332
0.799008 0.878444 0.264701
0.860360 0.878618 0.222025
0.887116 0.833655 0.190539
0.983134 0.846438 0.169306
0.070087 0.971576 0.200143
0.146508 0.971773 0.163565
0.352966 0.972526 0.226018
0.574805 0.973382 0.262855
0.768813 0.974219 0.308686
0.867908 0.974636 0.307750
0.915427 0.974770 0.259626
0.970676 0.974953 0.220142
0.986307 0.928955 0.190329
0.020212 0.052151 0.377103
0.106502 0.032297 0.376891
0.216261 0.032131 0.375702
0.341088 0.031964 0.374356
0.482688 0.032778 0.374281
0.624307 0.033626 0.374215
0.750539 0.034518 0.374321
0.861378 0.035443 0.374598
0.956821 0.036394 0.375044
0.044099 0.190195 0.371825
0.088378 0.115784 0.374040
0.201113 0.096906 0.373509
0.342897 0.096762 0.371991
0.484387 0.094224 0.357827
0.625949 0.093122 0.349365
0.752148 0.092756 0.343886
0.862969 0.092817 0.340170
0.958399 0.093147 0.337612
0.041911 0.285817 0.368426
0.122214 0.282066 0.367711
0.194508 0.214228 0.369360
0.345895 0.201070 0.368226
0.487014 0.186129 0.340478
0.628371 0.177782 0.324089
0.754441 0.172685 0.313407
0.865173 0.169427 0.306004
0.960540 0.167311 0.300690
0.026160 0.358118 0.354146
0.092398 0.358117 0.356305
0.196528 0.358130 0.359176
0.350610 0.358179 0.362652
0.490924 0.317370 0.321959
0.631837 0.294190 0.298185
0.757626 0.279504 0.282724
0.868166 0.269557 0.271970
0.963393 0.262518 0.264170
0.026284 0.498673 0.362603
0.088436 0.498713 0.347738
0.182910 0.498785 0.331411
0.355474 0.498962 0.338077
0.496242 0.484629 0.328713
0.636741 0.451200 0.272759
0.761448 0.404689 0.233378
0.871956 0.392136 0.231187
0.967187 0.383955 0.228944
0.031771 0.639572 0.359203
0.093977 0.639648 0.333229
0.188863 0.639778 0.305241
0.371948 0.640109 0.326314
0.581295 0.640564 0.363225
0.642332 0.615345 0.309336
0.768390 0.609000 0.269885
0.878036 0.574236 0.228475
0.972008 0.531916 0.190844
0.039086 0.765436 0.352335
0.104012 0.765546 0.317990
0.198682 0.765728 0.286140
0.394023 0.766224 0.321397
0.630966 0.766923 0.374393
0.723337 0.767169 0.343598
0.772875 0.734416 0.297711
0.883899 0.737504 0.265480
0.978885 0.723881 0.231798
0.048167 0.876167 0.343017
0.115180 0.876309 0.304857
0.209901 0.876538 0.271279
0.419362 0.877211 0.320614
0.654265 0.878050 0.369279
0.794420 0.878582 0.388019
0.851933 0.878728 0.331924
0.887765 0.841170 0.290728
0.983537 0.848026 0.261004
0.057761 0.971677 0.333799
0.126691 0.971850 0.293596
0.221704 0.972119 0.259140
0.446790 0.972978 0.322628
0.678020 0.973930 0.368500
0.857510 0.974765 0.426485
0.909278 0.974915 0.375423
0.963511 0.975079 0.324982
0.986917 0.935288 0.286853
0.024462 0.059834 0.516668
0.107667 0.033595 0.516723
0.218000 0.033036 0.515546
0.343003 0.032879 0.514200
0.483081 0.032731 0.512699
0.624706 0.033590 0.512802
0.750944 0.034490 0.513073
0.861789 0.035424 0.513511
0.957236 0.036382 0.514113
0.047221 0.199956 0.511343
0.089757 0.121223 0.513726
0.194384 0.094436 0.513570
0.330331 0.094305 0.512116
0.484829 0.094189 0.510472
0.626386 0.093098 0.497951
0.752583 0.092742 0.489849
0.863403 0.092811 0.484322
0.958834 0.093148 0.480455
0.071204 0.348522 0.505811
0.124053 0.294558 0.507160
0.184606 0.209810 0.509530
0.318754 0.186166 0.508951
0.487513 0.186117 0.507174
0.628850 0.177780 0.482332
0.754908 0.172691 0.466180
0.865633 0.169441 0.454974
0.960995 0.167330 0.446879
0.047790 0.417919 0.503625
0.120507 0.410679 0.503124
0.228109 0.409547 0.502053
0.317106 0.332808 0.503801
0.491489 0.317399 0.502534
0.632364 0.294221 0.465747
0.758130 0.279540 0.441916
0.868655 0.269597 0.425354
0.963871 0.262562 0.413306
0.033621 0.498706 0.483315
0.096855 0.498756 0.485687
0.189489 0.498841 0.488682
0.319629 0.498981 0.492228
0.497270 0.499215 0.496240
0.637294 0.450481 0.447970
0.762533 0.419514 0.416882
0.872699 0.398317 0.395322
0.967657 0.383057 0.379619
0.032409 0.639639 0.497390
0.092395 0.639723 0.484498
0.177931 0.639852 0.471039
0.297334 0.640052 0.455900
0.500353 0.640464 0.467160
0.643253 0.627386 0.456489
0.768197 0.591514 0.387516
0.877180 0.538223 0.337040
0.972106 0.520586 0.331503
0.037420 0.765533 0.495185
0.096266 0.765643 0.473460
0.179668 0.765810 0.448891
0.298749 0.766071 0.422137
0.514319 0.766664 0.451359
0.718682 0.767313 0.494406
0.773717 0.744440 0.431959
0.884248 0.735437 0.382195
0.978357 0.699305 0.329715
0.042367 0.876285 0.492826
0.103073 0.876420 0.460962
0.188026 0.876626 0.427775
0.305577 0.876941 0.397376
0.534168 0.877721 0.443228
0.761469 0.878608 0.504778
0.844469 0.878879 0.469822
0.888544 0.849562 0.416153
0.984023 0.849545 0.375202
0.049488 0.971812 0.485604
0.112381 0.971971 0.447401
0.198273 0.972212 0.410307
0.314655 0.972573 0.378219
0.557302 0.973547 0.440045
0.780037 0.974534 0.496790
0.905948 0.975115 0.517798
0.956446 0.975244 0.454292
0.987643 0.942285 0.405926
0.028746 0.067636 0.656231
0.107803 0.036098 0.656525
0.219743 0.033948 0.655390
0.344923 0.033801 0.654045
0.485175 0.033664 0.652544
0.625106 0.033557 0.651055
0.751349 0.034467 0.651160
0.862198 0.035408 0.651432
0.957650 0.036374 0.651868
0.050907 0.209507 0.650866
0.092485 0.127980 0.653353
0.190668 0.093961 0.653527
0.323623 0.093254 0.652128
0.474014 0.093149 0.650530
0.626832 0.093078 0.648914
0.753031 0.092731 0.639518
0.863853 0.092809 0.632976
0.959285 0.093153 0.628293
0.081523 0.378781 0.644559
0.123809 0.299637 0.646895
0.180846 0.211056 0.649433
0.303540 0.177836 0.649317
0.463739 0.177789 0.647630
0.629348 0.177782 0.645895
0.755403 0.172702 0.627045
0.866125 0.169459 0.613625
0.961486 0.167356 0.603721
0.075297 0.482354 0.641029
0.155875 0.478081 0.640352
0.224664 0.417745 0.641727
0.299872 0.322251 0.644266
0.454613 0.294163 0.643642
0.632920 0.294260 0.641800
0.758676 0.279583 0.613585
0.869193 0.269645 0.593250
0.964403 0.262615 0.578045
0.054880 0.564409 0.638424
0.123682 0.556644 0.637992
0.219954 0.550991 0.637211
0.352364 0.551812 0.635851
0.456837 0.468101 0.637635
0.637921 0.450574 0.636404
0.763139 0.419605 0.598964
0.873288 0.398408 0.571712
0.968231 0.383148 0.551146
0.041352 0.639713 0.615917
0.102909 0.639811 0.617997
0.188886 0.639958 0.620498
0.305321 0.640174 0.623356
0.459460 0.640492 0.626496
0.644325 0.640922 0.629986
0.768947 0.593536 0.583220
0.878627 0.559048 0.548951
0.973195 0.533007 0.522932
0.039019 0.765634 0.630874
0.097037 0.765757 0.622756
0.177536 0.765935 0.612720
0.285306 0.766190 0.601940
0.428524 0.766556 0.589352
0.646032 0.767201 0.602182
0.774698 0.755584 0.592042
0.884217 0.720849 0.518293
0.977715 0.668474 0.457207
0.042727 0.876413 0.631082
0.100701 0.876558 0.614100
0.178056 0.876763 0.596697
0.282342 0.877054 0.576006
0.425185 0.877482 0.552574
0.656343 0.878319 0.584966
0.840825 0.879071 0.625741
0.889450 0.858801 0.565893
0.984501 0.848682 0.510571
0.047124 0.971960 0.629413
0.104617 0.972123 0.607014
0.182966 0.972355 0.580396
0.288122 0.972686 0.551356
0.428581 0.973164 0.524055
0.671738 0.974191 0.574734
0.877336 0.975162 0.633269
0.950271 0.975442 0.600773
0.988483 0.949925 0.547603
0.033022 0.075565 0.780573
0.107720 0.039023 0.781095
0.221449 0.034872 0.780016
0.346804 0.034733 0.778671
0.487227 0.034607 0.777172
0.626993 0.034510 0.775686
0.751712 0.034449 0.774366
0.862565 0.035398 0.774472
0.958020 0.036369 0.774741
0.054845 0.219108 0.775168
0.095857 0.135458 0.777729
0.187606 0.095817 0.778174
0.319765 0.092910 0.776865
0.467505 0.092815 0.775297
0.619015 0.092752 0.773697
0.753430 0.092725 0.772284
0.864255 0.092810 0.765182
0.959690 0.093161 0.760026
0.083989 0.391710 0.768779
0.125412 0.306155 0.771342
0.180074 0.215149 0.773984
0.293706 0.173495 0.774263
0.448762 0.172691 0.772658
0.611637 0.172686 0.770953
0.755843 0.172716 0.769451
0.866567 0.169480 0.755173
0.961929 0.167382 0.744537
0.106937 0.555808 0.762898
0.165385 0.506874 0.763973
0.219692 0.417971 0.766471
0.290469 0.318916 0.769177
0.431211 0.279426 0.769095
0.605072 0.279512 0.767297
0.759163 0.279626 0.765713
0.869679 0.269693 0.744316
0.964889 0.262668 0.728168
0.080946 0.622865 0.760888
0.156622 0.616455 0.760345
0.259265 0.614991 0.759370
0.343482 0.555992 0.760511
0.432697 0.451843 0.763140
0.599599 0.419452 0.762554
0.763680 0.419690 0.760895
0.873827 0.398495 0.732473
0.968768 0.383238 0.710801
0.062112 0.701089 0.758450
0.128612 0.694388 0.758013
0.218284 0.688420 0.757325
0.337025 0.684498 0.756284
0.493145 0.686542 0.754685
0.605061 0.610573 0.756094
0.769552 0.593679 0.755037
0.879227 0.559188 0.719584
0.973791 0.533145 0.692343
0.048767 0.765734 0.735033
0.109304 0.765874 0.736787
0.190991 0.766071 0.738825
0.298609 0.766346 0.741098
0.437780 0.766728 0.743549
0.607517 0.767233 0.746185
0.775714 0.767778 0.749315
0.885032 0.724412 0.706606
0.979307 0.690980 0.673551
0.045528 0.876532 0.749584
0.102700 0.876689 0.744071
0.178891 0.876907 0.737903
0.279590 0.877208 0.729927
0.409194 0.877619 0.721249
0.572942 0.878173 0.710958
0.776576 0.878950 0.723867
0.890388 0.868826 0.714754
0.984557 0.836546 0.645522
0.047578 0.972097 0.752320
0.104928 0.972273 0.739060
0.179813 0.972514 0.725455
0.275833 0.972837 0.711471
0.401049 0.973279 0.694528
0.565639 0.973897 0.675244
0.784161 0.974860 0.706862
0.947404 0.975653 0.743904
0.989352 0.958150 0.689523
0.037288 0.083618 0.889694
0.107571 0.042169 0.890441
0.223116 0.035807 0.889424
0.348646 0.035676 0.888080
0.489234 0.035558 0.886580
0.628836 0.035471 0.885099
0.753389 0.035418 0.883783
0.862889 0.035390 0.882631
0.958347 0.036367 0.882733
0.058922 0.228824 0.884246
0.099591 0.143399 0.886867
0.185288 0.098499 0.887565
0.317505 0.092971 0.886352
0.463415 0.092885 0.884805
0.613899 0.092830 0.883217
0.747750 0.092810 0.881812
0.864607 0.092814 0.880590
0.960045 0.093171 0.875207
0.087081 0.403936 0.877800
0.128002 0.313764 0.880521
0.180985 0.220902 0.883239
0.286129 0.173035 0.883828
0.438699 0.169417 0.882350
0.599333 0.169415 0.880670
0.742669 0.169447 0.879178
0.866951 0.169500 0.877890
0.962316 0.167408 0.867042
0.122240 0.596437 0.870853
0.165351 0.515950 0.873148
0.217957 0.420847 0.875870
0.285436 0.319669 0.878679
0.414871 0.270361 0.879057
0.585310 0.269505 0.877326
0.738322 0.269615 0.875751
0.870100 0.269738 0.874402
0.965313 0.262717 0.858130
0.110840 0.685443 0.867981
0.193479 0.681836 0.867283
0.266793 0.637861 0.868021
0.333297 0.551764 0.870244
0.417542 0.443837 0.873051
0.572056 0.398132 0.873043
0.734940 0.398353 0.871393
0.874290 0.398573 0.869988
0.969233 0.383319 0.848357
0.086986 0.750615 0.866051
0.159572 0.744103 0.865553
0.255092 0.739953 0.864754
0.379403 0.740334 0.863529
0.478897 0.687466 0.864292
0.578080 0.591847 0.866474
0.732740 0.558960 0.866041
0.879739 0.559311 0.864588
0.974304 0.533268 0.837628
0.069133 0.822489 0.863859
0.134158 0.816929 0.863408
0.219507 0.811616 0.862752
0.329717 0.807054 0.861834
0.470467 0.804417 0.860563
0.637276 0.807135 0.858879
0.739665 0.739711 0.860069
0.885597 0.724585 0.859160
0.979872 0.691151 0.826700
0.055796 0.876649 0.840412
0.115685 0.876824 0.841860
0.194412 0.877063 0.843494
0.295922 0.877385 0.845275
0.424780 0.877816 0.847155
0.582528 0.878377 0.849119
0.742025 0.878984 0.851426
0.891324 0.879588 0.854182
0.985365 0.840846 0.816100
0.051733 0.972226 0.853972
0.108480 0.972413 0.850091
0.182197 0.972665 0.845933
0.276716 0.973000 0.841126
0.397658 0.973448 0.834650
0.548193 0.974036 0.827523
0.708531 0.974697 0.819187
0.891649 0.975533 0.831493
0.990215 0.966915 0.823462
0.041545 0.091796 0.983593
0.107389 0.045457 0.984564
0.223821 0.037563 0.983595
0.350447 0.036629 0.982269
0.491198 0.036519 0.980770
0.630633 0.036439 0.979292
0.755021 0.036393 0.977980
0.864354 0.036371 0.976831
0.958629 0.036368 0.975843
0.063080 0.238671 0.978100
0.103547 0.151674 0.980773
0.183484 0.101602 0.981717
0.316223 0.093287 0.980600
0.460811 0.093209 0.979068
0.610472 0.093161 0.977491
0.743845 0.093147 0.976092
0.860473 0.093156 0.974874
0.960350 0.093181 0.973835
0.090553 0.415908 0.971606
0.131180 0.322168 0.974446
0.182934 0.227730 0.977226
0.280376 0.174164 0.978097
0.431650 0.167273 0.976750
0.590454 0.167276 0.975090
0.733049 0.167311 0.973606
0.857115 0.167367 0.972322
0.962646 0.167432 0.971234
0.124259 0.610319 0.964631
0.166701 0.525073 0.967087
0.218107 0.425755 0.969959
0.283084 0.322983 0.972843
0.402123 0.266708 0.973571
0.570726 0.262410 0.971978
0.722782 0.262517 0.970413
0.854432 0.262638 0.969065
0.965671 0.262761 0.967931
0.143802 0.748783 0.959826
0.209470 0.716062 0.960261
0.263325 0.642262 0.962178
0.327568 0.550802 0.964600
0.407857 0.440906 0.967511
0.551097 0.383877 0.968003
0.713235 0.382977 0.966396
0.852620 0.383189 0.964989
0.969625 0.383389 0.963813
0.115471 0.803500 0.958304
0.194390 0.798644 0.957695
0.296222 0.797195 0.956755
0.384445 0.758237 0.957170
0.463306 0.680423 0.958950
0.559077 0.580631 0.961305
0.704631 0.532737 0.961458
0.851904 0.533071 0.959998
0.974734 0.533374 0.958786
0.093059 0.864165 0.956541
0.163568 0.858279 0.956052
0.254293 0.853589 0.955330
0.369715 0.851065 0.954304
0.515561 0.852620 0.952863
0.620916 0.806024 0.953352
0.713173 0.720798 0.955213
0.851635 0.690877 0.954850
0.980343 0.691297 0.953605
0.075808 0.928229 0.954633
0.139845 0.923746 0.954164
0.222162 0.919327 0.953520
0.326473 0.915198 0.952659
0.457186 0.911804 0.951528
0.612445 0.910149 0.950117
0.767295 0.913115 0.948574
0.859054 0.854336 0.949565
0.985878 0.841033 0.948797
0.062374 0.972351 0.932030
0.121849 0.972557 0.933184
0.198438 0.972831 0.934451
0.295496 0.973190 0.935795
0.416849 0.973658 0.937181
0.565051 0.974261 0.938582
0.717331 0.974915 0.940212
0.861234 0.975566 0.942185
0.991052 0.976181 0.944545
