_estrategia/anuncios/_fuente/color/averarq.cube
TITLE "AVERARQ"
# Linea visual AVERARQ - generada por crear_lut.py
LUT_3D_SIZE 33
0.007906 0.029761 0.049703
0.030301 0.029959 0.049691
0.053658 0.030157 0.049670
0.077978 0.030354 0.049638
0.103260 0.030550 0.049596
0.129505 0.030746 0.049544
0.156714 0.030941 0.049482
0.184885 0.031136 0.049410
0.214019 0.031331 0.049328
0.244116 0.031526 0.049235
0.275177 0.031721 0.049133
0.307201 0.031917 0.049021
0.340188 0.032112 0.048899
0.374138 0.032309 0.048768
0.409052 0.032506 0.048626
0.444930 0.032703 0.048475
0.481772 0.032902 0.048313
0.518614 0.033103 0.048153
0.554496 0.033308 0.048003
0.589416 0.033515 0.047865
0.623374 0.033726 0.047737
0.656371 0.033939 0.047620
0.688407 0.034155 0.047514
0.719480 0.034374 0.047418
0.749592 0.034595 0.047333
0.778742 0.034818 0.047259
0.806929 0.035044 0.047196
0.834155 0.035271 0.047143
0.860419 0.035501 0.047101
0.885720 0.035732 0.047070
0.910059 0.035965 0.047049
0.933436 0.036199 0.047038
0.955850 0.036435 0.047039
0.013215 0.051825 0.050854
0.030836 0.050083 0.049977
0.054229 0.051753 0.048382
0.078544 0.051711 0.048118
0.103821 0.051668 0.047843
0.130061 0.051625 0.047558
0.157263 0.051581 0.047263
0.185429 0.051537 0.046958
0.214558 0.051492 0.046642
0.244650 0.051448 0.046316
0.275705 0.051403 0.045981
0.307730 0.051589 0.045870
0.340722 0.051873 0.045843
0.374677 0.052151 0.045796
0.409596 0.052425 0.045731
0.445478 0.052695 0.045648
0.482323 0.052961 0.045549
0.519170 0.053226 0.045445
0.555056 0.053491 0.045348
0.589979 0.053755 0.045257
0.623942 0.054020 0.045174
0.656942 0.054285 0.045098
0.688981 0.054550 0.045031
0.720058 0.054816 0.044971
0.750173 0.055082 0.044921
0.779325 0.055349 0.044878
0.807516 0.055616 0.044845
0.834745 0.055884 0.044820
0.861011 0.056152 0.044805
0.886315 0.056421 0.044799
0.910657 0.056690 0.044802
0.934036 0.056960 0.044815
0.956453 0.057229 0.044836
0.018600 0.074848 0.051980
0.045773 0.074800 0.055824
0.054757 0.071228 0.050218
0.079155 0.074452 0.047846
0.104440 0.074711 0.046991
0.130682 0.074671 0.046706
0.157887 0.074630 0.046412
0.186054 0.074589 0.046107
0.215185 0.074548 0.045793
0.245279 0.074507 0.045468
0.276336 0.074466 0.045133
0.308357 0.074426 0.044788
0.341341 0.074386 0.044434
0.375289 0.074346 0.044069
0.410200 0.074307 0.043694
0.446075 0.074269 0.043310
0.482913 0.074232 0.042915
0.519753 0.074197 0.042521
0.555632 0.074164 0.042138
0.590548 0.074135 0.041766
0.624503 0.074108 0.041404
0.657501 0.074217 0.041184
0.689543 0.074543 0.041182
0.720624 0.074868 0.041184
0.750743 0.075191 0.041191
0.779899 0.075514 0.041203
0.808093 0.075835 0.041222
0.835325 0.076155 0.041246
0.861595 0.076475 0.041277
0.886902 0.076793 0.041315
0.911246 0.077110 0.041360
0.934629 0.077427 0.041413
0.957048 0.077742 0.041473
0.024060 0.098831 0.053081
0.055932 0.098779 0.058983
0.070996 0.098758 0.055393
0.079670 0.093196 0.050425
0.105058 0.097317 0.048129
0.131332 0.098597 0.045825
0.158541 0.098639 0.045528
0.186711 0.098602 0.045224
0.215844 0.098564 0.044911
0.245940 0.098527 0.044587
0.277000 0.098490 0.044253
0.309023 0.098453 0.043909
0.342009 0.098417 0.043555
0.375959 0.098382 0.043191
0.410873 0.098347 0.042818
0.446751 0.098313 0.042434
0.483592 0.098281 0.042041
0.520434 0.098250 0.041648
0.556315 0.098222 0.041266
0.591235 0.098197 0.040895
0.625192 0.098175 0.040534
0.658188 0.098154 0.040184
0.690222 0.098136 0.039844
0.721294 0.098120 0.039515
0.751403 0.098106 0.039197
0.780551 0.098093 0.038889
0.808736 0.098082 0.038591
0.835959 0.098073 0.038304
0.862220 0.098065 0.038028
0.887518 0.098058 0.037761
0.911854 0.098053 0.037505
0.935228 0.098074 0.037284
0.957651 0.098435 0.037390
0.029598 0.123776 0.054158
0.062160 0.123728 0.059778
0.086289 0.123694 0.061926
0.097927 0.123682 0.055212
0.105577 0.115990 0.050599
0.131945 0.120631 0.048102
0.159214 0.122963 0.045778
0.187400 0.123575 0.044309
0.216535 0.123541 0.043996
0.246634 0.123508 0.043673
0.277696 0.123475 0.043340
0.309721 0.123442 0.042997
0.342710 0.123410 0.042645
0.376663 0.123379 0.042282
0.411579 0.123349 0.041909
0.447459 0.123320 0.041527
0.484303 0.123292 0.041135
0.521149 0.123266 0.040743
0.557032 0.123243 0.040362
0.591954 0.123223 0.039992
0.625914 0.123204 0.039632
0.658913 0.123188 0.039283
0.690949 0.123174 0.038944
0.722023 0.123162 0.038616
0.752135 0.123151 0.038299
0.781285 0.123143 0.037992
0.809472 0.123135 0.037695
0.836698 0.123130 0.037409
0.862960 0.123125 0.037133
0.888260 0.123121 0.036867
0.912598 0.123119 0.036612
0.935973 0.123118 0.036367
0.958385 0.123117 0.036133
0.035213 0.149683 0.055211
0.068266 0.149640 0.060673
0.101090 0.149598 0.067674
0.112905 0.149587 0.061307
0.126224 0.149574 0.055103
0.132479 0.139611 0.050740
0.159825 0.144669 0.048104
0.188085 0.147891 0.046185
0.217245 0.148942 0.043069
0.247361 0.149451 0.042728
0.278425 0.149422 0.042396
0.310453 0.149394 0.042054
0.343445 0.149367 0.041702
0.377400 0.149340 0.041340
0.412319 0.149315 0.040969
0.448202 0.149290 0.040588
0.485049 0.149267 0.040197
0.521897 0.149247 0.039806
0.557784 0.149228 0.039426
0.592708 0.149212 0.039057
0.626671 0.149198 0.038698
0.659672 0.149187 0.038350
0.691711 0.149177 0.038013
0.722787 0.149169 0.037686
0.752902 0.149162 0.037369
0.782054 0.149158 0.037063
0.810243 0.149154 0.036767
0.837471 0.149152 0.036482
0.863735 0.149151 0.036207
0.889038 0.149151 0.035942
0.913377 0.149151 0.035687
0.936754 0.149153 0.035443
0.959168 0.149155 0.035209
0.040907 0.176555 0.056240
0.074368 0.176517 0.061605
0.108187 0.176479 0.068240
0.129463 0.176458 0.068012
0.141121 0.176449 0.060890
0.155779 0.176436 0.055010
0.160376 0.164060 0.050848
0.188699 0.169479 0.048108
0.217941 0.173263 0.046137
0.248097 0.175317 0.043502
0.279183 0.176157 0.041426
0.311219 0.176310 0.041078
0.344213 0.176287 0.040728
0.378171 0.176265 0.040367
0.413093 0.176245 0.039997
0.448979 0.176225 0.039617
0.485829 0.176208 0.039227
0.522680 0.176192 0.038838
0.558570 0.176178 0.038459
0.593497 0.176167 0.038091
0.627463 0.176158 0.037733
0.660466 0.176151 0.037386
0.692508 0.176146 0.037050
0.723587 0.176142 0.036724
0.753704 0.176140 0.036408
0.782858 0.176139 0.036103
0.811050 0.176139 0.035808
0.838279 0.176141 0.035523
0.864546 0.176143 0.035249
0.889851 0.176147 0.034985
0.914192 0.176151 0.034732
0.937571 0.176156 0.034488
0.959987 0.176161 0.034255
0.046681 0.204393 0.057246
0.080510 0.204359 0.062547
0.115058 0.204327 0.068933
0.147170 0.204298 0.075130
0.157608 0.204292 0.067273
0.170740 0.204283 0.060567
0.186548 0.204273 0.054909
0.189270 0.189340 0.050924
0.218569 0.195086 0.048100
0.248791 0.199312 0.045971
0.279939 0.202202 0.043874
0.311995 0.203281 0.040587
0.345017 0.204174 0.039722
0.378978 0.204157 0.039363
0.413903 0.204141 0.038994
0.449791 0.204127 0.038615
0.486645 0.204114 0.038226
0.523499 0.204104 0.037838
0.559391 0.204095 0.037461
0.594322 0.204089 0.037094
0.628290 0.204085 0.036737
0.661296 0.204083 0.036391
0.693341 0.204082 0.036056
0.724422 0.204082 0.035731
0.754542 0.204085 0.035416
0.783699 0.204088 0.035112
0.811893 0.204092 0.034818
0.839125 0.204098 0.034535
0.865394 0.204104 0.034261
0.890700 0.204111 0.033998
0.915044 0.204119 0.033745
0.938424 0.204127 0.033503
0.960842 0.204136 0.033270
0.052534 0.233198 0.058228
0.086709 0.233170 0.063487
0.121843 0.233143 0.069694
0.157090 0.233117 0.076942
0.175305 0.233106 0.074086
0.187267 0.233100 0.066695
0.201666 0.233093 0.060289
0.218510 0.233084 0.054791
0.219162 0.215453 0.050969
0.249437 0.221502 0.048075
0.280638 0.226126 0.045815
0.312772 0.229648 0.044001
0.345820 0.231540 0.041026
0.379801 0.232358 0.038351
0.414748 0.233004 0.037959
0.450640 0.232995 0.037582
0.487496 0.232988 0.037195
0.524354 0.232983 0.036808
0.560249 0.232980 0.036432
0.595183 0.232979 0.036066
0.629154 0.232980 0.035711
0.662164 0.232983 0.035366
0.694210 0.232987 0.035032
0.725295 0.232992 0.034708
0.755417 0.232998 0.034394
0.784576 0.233006 0.034091
0.812773 0.233015 0.033798
0.840007 0.233024 0.033515
0.866279 0.233034 0.033243
0.891587 0.233045 0.032981
0.915933 0.233056 0.032729
0.939316 0.233068 0.032487
0.961735 0.233080 0.032255
0.058469 0.262972 0.059188
0.092976 0.262950 0.064418
0.128611 0.262928 0.070492
0.164700 0.262908 0.077485
0.193993 0.262894 0.081233
0.205029 0.262891 0.073252
0.218314 0.262886 0.066207
0.233848 0.262881 0.060026
0.250634 0.261895 0.054693
0.250053 0.242400 0.050982
0.281304 0.248737 0.048028
0.313483 0.253729 0.045658
0.346598 0.257673 0.043744
0.380638 0.260363 0.041338
0.415595 0.261525 0.038004
0.451517 0.262540 0.036529
0.488385 0.262832 0.036132
0.525246 0.262832 0.035747
0.561145 0.262835 0.035372
0.596082 0.262839 0.035008
0.630056 0.262845 0.034654
0.663068 0.262853 0.034310
0.695118 0.262862 0.033977
0.726205 0.262872 0.033654
0.756330 0.262883 0.033342
0.785492 0.262895 0.033039
0.813691 0.262908 0.032748
0.840928 0.262921 0.032466
0.867202 0.262936 0.032194
0.892513 0.262950 0.031933
0.916860 0.262965 0.031682
0.940245 0.262981 0.031441
0.962667 0.262996 0.031210
0.064487 0.293717 0.060125
0.099317 0.293700 0.065336
0.135399 0.293684 0.071310
0.172182 0.293671 0.078106
0.209015 0.293660 0.085796
0.223824 0.293657 0.080152
0.236205 0.293655 0.072547
0.250679 0.293652 0.065771
0.267259 0.293649 0.059764
0.282553 0.290364 0.054630
0.281944 0.270184 0.050965
0.314172 0.276797 0.047958
0.347330 0.282135 0.045493
0.381423 0.286457 0.043457
0.416453 0.289809 0.041481
0.452398 0.291659 0.038356
0.489274 0.292369 0.035085
0.526175 0.293597 0.034658
0.562079 0.293661 0.034283
0.597019 0.293670 0.033919
0.630996 0.293682 0.033567
0.664011 0.293694 0.033224
0.696064 0.293708 0.032892
0.727154 0.293723 0.032571
0.757282 0.293739 0.032259
0.786447 0.293756 0.031958
0.814649 0.293773 0.031667
0.841888 0.293791 0.031387
0.868164 0.293810 0.031116
0.893477 0.293828 0.030856
0.917827 0.293847 0.030606
0.941214 0.293866 0.030366
0.963638 0.293885 0.030136
0.070587 0.325433 0.061040
0.105735 0.325422 0.066240
0.142228 0.325414 0.072134
0.179607 0.325407 0.078776
0.217333 0.325403 0.086224
0.243520 0.325401 0.087340
0.255153 0.325401 0.079234
0.268750 0.325401 0.071926
0.284319 0.325401 0.065362
0.301880 0.325401 0.059494
0.315474 0.319661 0.054543
0.314837 0.298807 0.050918
0.348042 0.305689 0.047863
0.382178 0.311353 0.045314
0.417250 0.316034 0.043171
0.453265 0.319891 0.041371
0.490200 0.322419 0.038602
0.527097 0.323671 0.035238
0.563027 0.324652 0.033192
0.597995 0.325474 0.032801
0.631976 0.325491 0.032450
0.664994 0.325509 0.032109
0.697050 0.325528 0.031778
0.728143 0.325548 0.031458
0.758273 0.325569 0.031148
0.787441 0.325591 0.030848
0.815645 0.325612 0.030558
0.842887 0.325635 0.030278
0.869166 0.325657 0.030009
0.894482 0.325680 0.029749
0.918834 0.325703 0.029500
0.942223 0.325726 0.029261
0.964649 0.325748 0.029032
0.076772 0.358123 0.061934
0.112233 0.358119 0.067127
0.149113 0.358117 0.072960
0.187021 0.358117 0.079477
0.225502 0.358120 0.086730
0.264028 0.358126 0.094777
0.275031 0.358127 0.086214
0.287891 0.358129 0.078425
0.302610 0.358132 0.071357
0.319205 0.358135 0.064965
0.337700 0.358139 0.059208
0.349398 0.349790 0.054433
0.348733 0.328271 0.050841
0.382915 0.335416 0.047743
0.418029 0.341394 0.045119
0.454082 0.346415 0.042881
0.491075 0.350629 0.040970
0.528039 0.353842 0.038725
0.563997 0.355704 0.035538
0.598956 0.356463 0.032101
0.632982 0.357845 0.031319
0.666017 0.358298 0.030964
0.698076 0.358323 0.030635
0.729172 0.358348 0.030316
0.759305 0.358374 0.030007
0.788476 0.358400 0.029708
0.816683 0.358427 0.029419
0.843928 0.358454 0.029141
0.870209 0.358481 0.028872
0.895527 0.358508 0.028614
0.919882 0.358535 0.028366
0.943273 0.358562 0.028127
0.965702 0.358588 0.027899
0.083041 0.391789 0.062806
0.118813 0.391791 0.067997
0.156062 0.391797 0.073781
0.194452 0.391804 0.080198
0.233591 0.391815 0.087291
0.273030 0.391829 0.095111
0.295751 0.391837 0.093451
0.307982 0.391840 0.085220
0.321978 0.391845 0.077691
0.337750 0.391851 0.070821
0.355319 0.391858 0.064570
0.374712 0.391866 0.058903
0.384326 0.380756 0.054297
0.383632 0.358579 0.050735
0.418793 0.365982 0.047597
0.454886 0.372262 0.044906
0.491918 0.377611 0.042582
0.528928 0.382167 0.040581
0.564953 0.385948 0.038703
0.599971 0.388401 0.035766
0.633991 0.389743 0.032427
0.667035 0.390608 0.029842
0.699138 0.391945 0.029468
0.730242 0.392125 0.029145
0.760379 0.392156 0.028837
0.789552 0.392187 0.028540
0.817763 0.392219 0.028252
0.845010 0.392250 0.027975
0.871294 0.392282 0.027707
0.896614 0.392313 0.027450
0.920972 0.392344 0.027203
0.944366 0.392375 0.026965
0.966796 0.392405 0.026738
0.089397 0.426432 0.063658
0.125477 0.426441 0.068849
0.163082 0.426454 0.074594
0.201918 0.426470 0.080928
0.241646 0.426488 0.087890
0.281875 0.426510 0.095523
0.317250 0.426531 0.100919
0.328937 0.426537 0.092276
0.342309 0.426543 0.084319
0.357373 0.426551 0.077007
0.374145 0.426561 0.070302
0.392648 0.426572 0.064168
0.412912 0.426585 0.058577
0.420261 0.412564 0.054137
0.419537 0.389732 0.050600
0.455676 0.397390 0.047425
0.492749 0.403965 0.044672
0.529797 0.409631 0.042281
0.565860 0.414514 0.040210
0.600941 0.418712 0.038423
0.635022 0.421791 0.035903
0.668100 0.423685 0.032707
0.700183 0.424582 0.029307
0.731324 0.425897 0.027980
0.761495 0.426916 0.027639
0.790672 0.426952 0.027343
0.818885 0.426989 0.027057
0.846135 0.427025 0.026780
0.872422 0.427061 0.026514
0.897745 0.427097 0.026258
0.922105 0.427133 0.026011
0.945501 0.427168 0.025775
0.967934 0.427202 0.025549
0.095840 0.462054 0.064489
0.132228 0.462071 0.069684
0.170178 0.462091 0.075398
0.209435 0.462115 0.081664
0.249698 0.462142 0.088515
0.290627 0.462173 0.095990
0.331836 0.462207 0.104131
0.350694 0.462221 0.099569
0.363522 0.462229 0.091212
0.377969 0.462239 0.083487
0.394049 0.462251 0.076358
0.411779 0.462265 0.069791
0.431184 0.462281 0.063756
0.452297 0.462299 0.058227
0.457203 0.445216 0.053951
0.456450 0.421733 0.050437
0.493567 0.429643 0.047227
0.530656 0.436506 0.044428
0.566757 0.442477 0.041985
0.601873 0.447679 0.039851
0.636006 0.452201 0.037992
0.669150 0.455888 0.035930
0.701287 0.458321 0.032925
0.732428 0.459750 0.029611
0.762582 0.460439 0.026489
0.791815 0.462113 0.026138
0.820051 0.462739 0.025833
0.847304 0.462781 0.025558
0.873593 0.462822 0.025293
0.898919 0.462862 0.025038
0.923282 0.462902 0.024792
0.946680 0.462941 0.024557
0.969116 0.462980 0.024332
0.102372 0.498657 0.065301
0.139065 0.498682 0.070501
0.177354 0.498710 0.076191
0.217010 0.498743 0.082399
0.257769 0.498779 0.089157
0.299328 0.498818 0.096499
0.341349 0.498862 0.104461
0.373205 0.498895 0.107079
0.385554 0.498905 0.098344
0.399460 0.498917 0.090230
0.414931 0.498932 0.082702
0.431984 0.498948 0.075729
0.450639 0.498967 0.069280
0.470922 0.498988 0.063330
0.492866 0.499012 0.057853
0.495154 0.478716 0.053741
0.494370 0.454584 0.050247
0.531503 0.462744 0.047014
0.567645 0.469887 0.044182
0.602798 0.476157 0.041692
0.636967 0.481667 0.039502
0.670152 0.486504 0.037577
0.702355 0.490694 0.035810
0.733552 0.493670 0.033068
0.763750 0.495610 0.029874
0.792955 0.496629 0.026508
0.821206 0.497807 0.024639
0.848508 0.499250 0.024318
0.874810 0.499565 0.024045
0.900138 0.499610 0.023790
0.924504 0.499654 0.023546
0.947905 0.499698 0.023312
0.970343 0.499740 0.023087
0.108963 0.535285 0.066126
0.145960 0.535318 0.071333
0.184582 0.535355 0.077004
0.224623 0.535396 0.083165
0.265846 0.535441 0.089843
0.307982 0.535490 0.097071
0.350729 0.535543 0.104881
0.393752 0.535600 0.113310
0.408328 0.535616 0.105729
0.421753 0.535629 0.097247
0.436686 0.535645 0.089342
0.453140 0.535664 0.081985
0.471132 0.535685 0.075145
0.490685 0.535710 0.068798
0.511676 0.535736 0.062921
0.533637 0.535765 0.057497
0.533148 0.512932 0.053519
0.532336 0.488287 0.050040
0.568522 0.496694 0.046794
0.603715 0.504094 0.043934
0.637919 0.510582 0.041405
0.671135 0.516280 0.039167
0.703368 0.521287 0.037188
0.734619 0.525680 0.035445
0.764874 0.529119 0.033143
0.794127 0.531458 0.030107
0.822386 0.532906 0.026821
0.849653 0.533527 0.023442
0.876002 0.535210 0.022839
0.901370 0.536332 0.022550
0.925739 0.536429 0.022305
0.949143 0.536477 0.022072
0.971583 0.536524 0.021849
0.115583 0.570982 0.066999
0.152884 0.571022 0.072214
0.191833 0.571067 0.077870
0.232245 0.571117 0.083991
0.273907 0.571171 0.090602
0.316578 0.571229 0.097731
0.359986 0.571292 0.105409
0.403832 0.571359 0.113669
0.431772 0.571401 0.113387
0.444769 0.571416 0.104552
0.459222 0.571434 0.096288
0.475143 0.571455 0.088565
0.492546 0.571478 0.081355
0.511330 0.571505 0.074633
0.531114 0.571533 0.068380
0.551800 0.571564 0.062576
0.570944 0.569305 0.057303
0.570181 0.546646 0.053339
0.569373 0.522458 0.049839
0.604600 0.530785 0.046594
0.638834 0.538102 0.043718
0.672079 0.544557 0.041162
0.704338 0.550265 0.038887
0.735614 0.555316 0.036863
0.765909 0.559782 0.035068
0.795217 0.563566 0.033166
0.823522 0.566250 0.030335
0.850834 0.568065 0.027155
0.877154 0.569095 0.023826
0.902510 0.569990 0.021419
0.926932 0.571581 0.021125
0.950362 0.572318 0.020870
0.972805 0.572369 0.020648
0.122231 0.605744 0.067917
0.159835 0.605792 0.073142
0.199107 0.605845 0.078787
0.239881 0.605903 0.084875
0.281962 0.605966 0.091428
0.325133 0.606034 0.098472
0.369149 0.606106 0.106035
0.413740 0.606183 0.114148
0.455855 0.606259 0.121303
0.468468 0.606275 0.112131
0.482491 0.606295 0.103523
0.497934 0.606317 0.095450
0.514648 0.606343 0.087887
0.532366 0.606371 0.080812
0.551018 0.606401 0.074201
0.570535 0.606433 0.068036
0.590847 0.606468 0.062297
0.606999 0.601765 0.057174
0.606241 0.579567 0.053209
0.605442 0.555923 0.049684
0.639707 0.564087 0.046443
0.672980 0.571306 0.043555
0.705266 0.577713 0.040975
0.736567 0.583412 0.038667
0.766884 0.588486 0.036603
0.796222 0.593003 0.034760
0.824579 0.597003 0.033094
0.851936 0.600009 0.030546
0.878298 0.602144 0.027501
0.903670 0.603527 0.024245
0.928053 0.604205 0.020903
0.951505 0.605589 0.019759
0.973994 0.606922 0.019495
0.128905 0.639570 0.068882
0.166811 0.639626 0.074117
0.206404 0.639687 0.079755
0.247531 0.639753 0.085814
0.290015 0.639825 0.092317
0.333659 0.639902 0.099288
0.378240 0.639984 0.106751
0.423514 0.640071 0.114734
0.469212 0.640163 0.123267
0.492818 0.640206 0.119971
0.506430 0.640227 0.111032
0.521170 0.640251 0.102626
0.536931 0.640277 0.094728
0.553649 0.640306 0.087313
0.571260 0.640337 0.080360
0.589700 0.640370 0.073850
0.608904 0.640406 0.067762
0.628809 0.640444 0.062081
0.642080 0.633416 0.057098
0.641329 0.611693 0.053128
0.640539 0.588600 0.049578
0.673841 0.596596 0.046341
0.706153 0.603707 0.043443
0.737478 0.610051 0.040843
0.767819 0.615724 0.038505
0.797178 0.620804 0.036404
0.825557 0.625351 0.034519
0.852956 0.629418 0.032833
0.879366 0.632760 0.030726
0.904778 0.635179 0.027849
0.929200 0.636868 0.024687
0.952633 0.637887 0.021393
0.975090 0.638498 0.018447
0.135605 0.672458 0.069893
0.173813 0.672522 0.075139
0.213724 0.672591 0.080771
0.255196 0.672666 0.086807
0.298070 0.672746 0.093267
0.342164 0.672832 0.100173
0.387276 0.672923 0.107549
0.433182 0.673020 0.115418
0.479637 0.673122 0.123810
0.517619 0.673207 0.128064
0.530497 0.673228 0.118809
0.544406 0.673252 0.110083
0.559288 0.673278 0.101861
0.575083 0.673308 0.094120
0.591733 0.673340 0.086838
0.609177 0.673374 0.079995
0.627355 0.673411 0.073574
0.646208 0.673450 0.067557
0.665676 0.673491 0.061928
0.676185 0.664259 0.057073
0.675443 0.643023 0.053095
0.674661 0.620484 0.049520
0.707001 0.628309 0.046288
0.738351 0.635302 0.043382
0.768715 0.641571 0.040763
0.798095 0.647205 0.038399
0.826494 0.652273 0.036265
0.853913 0.656834 0.034341
0.880354 0.660934 0.032612
0.905813 0.664520 0.030852
0.930273 0.667196 0.028187
0.953743 0.669152 0.025143
0.976226 0.670466 0.021916
0.142330 0.704407 0.070949
0.180839 0.704478 0.076207
0.221065 0.704555 0.081836
0.262878 0.704638 0.087853
0.306130 0.704727 0.094276
0.350656 0.704822 0.101125
0.396269 0.704923 0.108423
0.442764 0.705030 0.116193
0.489919 0.705142 0.124458
0.536686 0.705257 0.133255
0.554436 0.705294 0.126846
0.567578 0.705318 0.117810
0.581647 0.705345 0.109275
0.596589 0.705375 0.101217
0.612347 0.705407 0.093617
0.628867 0.705442 0.086455
0.646093 0.705479 0.079712
0.663968 0.705518 0.073370
0.682437 0.705560 0.067416
0.701443 0.705604 0.061834
0.709314 0.694293 0.057098
0.708580 0.673555 0.053111
0.707809 0.651575 0.049509
0.739184 0.659224 0.046282
0.769572 0.666091 0.043370
0.798974 0.672275 0.040734
0.827393 0.677855 0.038346
0.854831 0.682897 0.036183
0.881290 0.687455 0.034224
0.906770 0.691574 0.032455
0.931274 0.695289 0.030864
0.954783 0.698217 0.028507
0.977300 0.700408 0.025604
0.149079 0.735415 0.072050
0.187889 0.735494 0.077321
0.228428 0.735578 0.082948
0.270576 0.735669 0.088949
0.314198 0.735767 0.095340
0.359139 0.735870 0.102140
0.405229 0.735981 0.109370
0.452279 0.736097 0.117050
0.500085 0.736219 0.125204
0.547103 0.736344 0.133870
0.578201 0.736425 0.135135
0.590634 0.736448 0.125798
0.603949 0.736475 0.116958
0.618098 0.736505 0.108594
0.633028 0.736537 0.100686
0.648689 0.736572 0.093213
0.665027 0.736609 0.086158
0.681990 0.736649 0.079504
0.699526 0.736691 0.073236
0.717582 0.736735 0.067339
0.736105 0.736781 0.061799
0.741464 0.723517 0.057172
0.740740 0.703287 0.053173
0.739981 0.681870 0.049545
0.770391 0.689340 0.046324
0.799815 0.696074 0.043406
0.828254 0.702162 0.040756
0.855711 0.707677 0.038347
0.882188 0.712680 0.036157
0.907685 0.717221 0.034166
0.932205 0.721342 0.032361
0.955748 0.725077 0.030729
0.978306 0.728259 0.028792
0.155850 0.765481 0.073196
0.194961 0.765566 0.078479
0.235811 0.765659 0.084107
0.278291 0.765757 0.090095
0.322274 0.765863 0.096458
0.367617 0.765976 0.103215
0.414164 0.766095 0.110384
0.461740 0.766221 0.117985
0.510137 0.766353 0.126040
0.557256 0.766486 0.134590
0.601755 0.766616 0.143669
0.613528 0.766640 0.134038
0.626143 0.766667 0.124902
0.639554 0.766696 0.116240
0.653712 0.766728 0.108031
0.668570 0.766763 0.100257
0.684079 0.766800 0.092900
0.700189 0.766840 0.085943
0.716852 0.766882 0.079370
0.734017 0.766926 0.073168
0.751634 0.766972 0.067323
0.769655 0.767020 0.061822
0.772635 0.751931 0.057295
0.771922 0.732216 0.053282
0.771174 0.711366 0.049627
0.800620 0.718654 0.046412
0.829079 0.725248 0.043490
0.856555 0.731231 0.040827
0.883049 0.736671 0.038400
0.908563 0.741623 0.036185
0.933098 0.746134 0.034165
0.956657 0.750244 0.032327
0.979238 0.753984 0.030658
0.162644 0.794602 0.074385
0.202054 0.794695 0.079683
0.243215 0.794794 0.085313
0.286023 0.794901 0.091290
0.330360 0.795015 0.097630
0.376094 0.795136 0.104348
0.423080 0.795264 0.111463
0.471156 0.795400 0.118993
0.520012 0.795541 0.126960
0.567176 0.795683 0.135407
0.611781 0.795821 0.144362
0.636223 0.795891 0.142524
0.648185 0.795917 0.133099
0.660907 0.795946 0.124145
0.674344 0.795978 0.115644
0.688452 0.796012 0.107576
0.703184 0.796049 0.099924
0.718494 0.796088 0.092672
0.734337 0.796130 0.085804
0.750665 0.796174 0.079306
0.767431 0.796220 0.073164
0.784588 0.796268 0.067366
0.802090 0.796317 0.061900
0.802825 0.779534 0.057464
0.802124 0.760342 0.053437
0.801389 0.740062 0.049755
0.829868 0.747164 0.046547
0.857363 0.753613 0.043621
0.883874 0.759484 0.040947
0.909405 0.764838 0.038502
0.933956 0.769728 0.036265
0.957529 0.774198 0.034219
0.980124 0.778283 0.032350
0.169458 0.822777 0.075619
0.209168 0.822877 0.080930
0.250638 0.822984 0.086564
0.293770 0.823099 0.092533
0.338456 0.823221 0.098852
0.384573 0.823350 0.105537
0.431983 0.823487 0.112604
0.480538 0.823632 0.120071
0.529715 0.823782 0.127960
0.576886 0.823932 0.136314
0.621553 0.824077 0.145158
0.658685 0.824200 0.151250
0.670037 0.824225 0.141542
0.682114 0.824253 0.132303
0.694876 0.824285 0.123516
0.708280 0.824318 0.115161
0.722283 0.824355 0.107222
0.736842 0.824394 0.099682
0.751914 0.824435 0.092526
0.767454 0.824478 0.085739
0.783417 0.824523 0.079309
0.799760 0.824571 0.073222
0.816438 0.824620 0.067467
0.832690 0.823977 0.062063
0.832033 0.806324 0.057681
0.831345 0.787662 0.053638
0.830623 0.767955 0.049928
